X: 6335
T: Carval Ny Drogh Vraane
R: reel
M: 4/4
K: Bminor
B2|B2 F2 B2 AB|c2 B4 Bc|d2 d2 c2 c2|A5 B2|
B2 F2 B2 AB|c2 B4 Bc|d2 e2 f2 f2|d5 de|
f2 d2 e2 e2|dc B4 B2|f2 c2 d2 cB|A5 dc|
B2 A2 Bc d2|F2 E4 FA|Bc d2 c2 d2|B5||

